X: 89
T: The DRAGOON
%R: jig
B: Jean White "100 Popular Hornpipes, Reels, Jigs and Country Dances", Boston 1880 p.37
F: http://www.loc.gov/resource/sm1880.09124.0#seq-1
Z: 2014 John Chambers <jc:trillian.mit.edu>
M: 9/8
L: 1/8
K: G
% - - - - - - - - - - - - - - - - - - - - - - - - - - - - -
D !segno!|:\
GAG Gge dBG | BAA ABd e2g |\
G2G Gge dBG | ABc BAG E2 H:|
d |\
g2g gag fed | e2e efg a2b |\
g2g bag fed | e/f/ge dBG A2d |
g2g gag fed | e2e egb a2g |\
gab abg fed | gfe dBG A2"_D.C."B!segno!|]
% - - - - - - - - - - - - - - - - - - - - - - - - - - - - -

%%sep 1 1 500
%%sep 1 1 500
